src/images/cloudflare-black.svg

<?xml version="1.0" encoding="UTF-8"?>
<svg width="1926px" height="264px" viewBox="0 0 1926 264" version="1.1" xmlns="http://www.w3.org/2000/svg" xmlns:xlink="http://www.w3.org/1999/xlink">
    <title>cloudflare-black</title>
    <g id="Page-1" stroke="none" stroke-width="1" fill="none" fill-rule="evenodd">
        <g id="Group" transform="translate(-125.525, 38)">
            <g transform="translate(125.525, 29)" fill-rule="nonzero" id="Layer">
                <polygon fill="#FFFFFF" points="261 128 68 127.435807 68 54.165998 221.585847 53 227.558841 55.3696088 261 63.0426279"></polygon>
                <path d="M196.617217,128.215447 C196.617217,129.392492 195.437704,130 194.220142,130 L2.41609933,130 C2.18780648,129.974687 1.95951363,129.924062 1.73122078,129.848123 C1.5282938,129.746872 1.33804976,129.607651 1.16048865,129.430462 C1.00829342,129.278585 0.88146406,129.088739 0.780000571,128.860923 C0.678537082,128.658421 0.627805338,128.443262 0.627805338,128.215447 C0.500975977,127.683878 0.386829552,127.139652 0.285366063,126.58277 C0.209268446,126.051201 0.145853765,125.506976 0.0951220209,124.950094 C0.0443902764,124.393212 0.0190244042,123.83633 0.0190244042,123.279448 C-0.00634146806,122.747879 -0.00634146806,122.203653 0.0190244042,121.646771 C0.0190244042,116.027327 1.12243985,110.445851 3.21512431,105.244068 C5.34585757,100.042285 8.46585986,95.2961321 12.3848871,91.2713946 C16.3039144,87.2466572 20.9839178,84.0192734 26.1205069,81.7790894 C31.2951449,79.5009362 36.8122221,78.2859211 42.4434457,78.096075 C42.2405187,77.2354393 42.0756406,76.3621472 41.9488112,75.4761987 C41.8219819,74.5649374 41.7458842,73.6663325 41.7205184,72.7803841 C41.6697866,71.8691227 41.6571037,70.9705179 41.6824696,70.0845694 C41.6824696,69.1733081 41.7332013,68.2747032 41.8346648,67.3887547 C42.2532017,63.8955864 43.2044219,60.5163257 44.7263742,57.3648804 C46.2483266,54.213435 48.3029622,51.3277742 50.7761348,48.8597749 C53.2493073,46.3917755 56.1410167,44.3414376 59.2990678,42.8226687 C62.4571189,41.3038999 65.8434629,40.3546694 69.3439532,39.9370079 C71.2463936,39.7851311 73.1361511,39.8104439 75.0132257,40.0129464 C76.9156661,40.1901361 78.7800577,40.5318591 80.6064005,41.0381154 C82.4581092,41.5443716 84.2337202,42.2025048 85.9332337,43.0125148 C87.658113,43.8478377 89.2942117,44.8097246 90.84153,45.8981756 C95.6737286,31.9255023 104.919589,19.8512901 117.209354,11.5739999 C129.537168,3.33467896 144.185959,-0.728027677 158.986946,0.107295184 C173.825981,0.904648823 187.942089,6.52409352 199.280634,16.0923372 C210.58113,25.6226117 218.457233,38.6080852 221.729431,53.0743584 C222.338212,53.6818659 221.729431,54.2514042 221.729431,54.8589118 L215.755768,70.3503539 C214.462108,73.4258608 212.749912,76.2735524 210.695276,78.8934286 C208.640641,81.5133049 206.243566,83.8294273 203.580149,85.8038268 C200.916733,87.8161955 198.025023,89.4109028 194.905021,90.6259179 C191.823067,91.840933 188.588919,92.6382866 185.278672,93.0179788 L80.6824981,94.2329939 C79.5029851,94.2329939 78.8942041,94.8025322 78.2854232,96.0175473 C78.1585938,96.1187985 78.0571303,96.2453626 77.9810327,96.3972395 C77.9049351,96.5491164 77.8668863,96.7136496 77.8668863,96.8908393 C77.8668863,97.068029 77.9049351,97.2325623 77.9810327,97.3844392 C78.0571303,97.5616289 78.1585938,97.7008494 78.2854232,97.8021006 C78.8942041,97.8021006 79.5029851,98.371639 80.111766,98.371639 L184.06111,99.586654 C185.278672,99.6879053 186.470868,99.9157206 187.637698,100.2701 C188.804529,100.599167 189.93331,101.042141 191.024042,101.599023 C192.089409,102.181217 193.091361,102.852007 194.029898,103.611391 C194.993801,104.370776 195.856241,105.218755 196.617217,106.155329 C197.378193,107.256437 197.986974,108.471452 198.481609,109.762405 C198.938194,111.01539 199.242585,112.344312 199.39478,113.673235 C199.546975,115.002158 199.546975,116.36905 199.39478,117.735942 C199.242585,119.064864 198.900146,120.393787 198.405511,121.646771 L196.617217,128.215447 Z" fill="#F48120"></path>
                <path d="M253.118168,59.4070233 C259.92807,62.2563918 266.132648,66.4354657 271.353573,71.7162953 C276.61233,76.9591334 280.773937,83.1897525 283.611396,90.028237 C286.486688,96.904713 287.962167,104.237088 288,111.683438 C287.974778,113.000479 287.899113,114.304857 287.773003,115.59657 C287.646894,116.913612 287.482952,118.21799 287.281177,119.509703 C287.079402,120.801417 286.839794,122.093131 286.562354,123.384844 C286.284914,124.65123 285.96964,125.917616 285.616534,127.184002 C285.666978,127.43728 285.654367,127.677893 285.578701,127.905842 C285.503036,128.15912 285.376927,128.374405 285.200374,128.551699 C285.023821,128.728993 284.809435,128.855632 284.557216,128.931615 C284.330219,129.007598 284.090612,129.020262 283.838393,128.969607 L205.411021,128.969607 C204.238205,128.969607 203.63288,127.791868 204.238205,127.184002 L205.411021,121.82719 C206.697336,118.787863 208.399812,115.900503 210.442782,113.279084 C212.485753,110.657665 214.869219,108.340179 217.517514,106.364616 C220.165809,104.389054 223.041101,102.755416 226.14339,101.539686 C229.207846,100.323955 232.423633,99.526132 235.715085,99.1462162 L258.301261,97.9684773 C259.474077,97.9684773 260.079402,97.360612 260.684726,96.182873 C260.810836,96.0562344 260.911723,95.9169319 260.987389,95.7649656 C261.088276,95.6129993 261.13872,95.4483691 261.13872,95.2710751 C261.13872,95.093781 261.088276,94.9291508 260.987389,94.7771845 C260.911723,94.6252182 260.810836,94.4985796 260.684726,94.3972687 C260.079402,94.3972687 259.474077,93.7894034 258.906585,93.7894034 L236.925735,92.5736729 C235.715085,92.472362 234.529658,92.2570764 233.369453,91.927816 C232.209247,91.5732279 231.086874,91.117329 230.002334,90.5601191 C228.943016,90.0029093 227.946753,89.3443885 227.013544,88.5845569 C226.055113,87.7993976 225.19757,86.950919 224.440914,86.0391211 C223.684259,84.8993737 223.078934,83.6836431 222.587108,82.4299209 C222.133114,81.1382072 221.830452,79.8464935 221.679121,78.4787966 C221.52779,77.1490913 221.52779,75.7813944 221.679121,74.4516891 C221.830452,73.0839922 222.170947,71.7922785 222.662773,70.5005647 L226.82438,56.177739 C227.391872,55.6078653 227.997196,55 228.602521,55 L231.553479,55 C238.968705,55.0379916 246.270434,56.5576548 253.118168,59.4070233 L253.118168,59.4070233 Z" fill="#FAAD3F"></path>
            </g>
            <g id="Cloudflare-logo-vector-svg" transform="translate(457.525, -367)" fill="#404041">
                <path d="M1579.4,427.2 C1573.7,427.2 1568.6,423.8 1566.4,418.5 C1564.2,413.2 1565.4,407.1 1569.4,403.1 C1573.5,399 1579.6,397.8 1584.9,400 C1590.1,402.2 1593.6,407.3 1593.6,413.1 C1593.6,414.9 1593.2,416.8 1592.5,418.5 C1591.8,420.2 1590.8,421.8 1589.5,423.1 C1588.1,424.4 1586.6,425.4 1584.9,426.1 C1583.1,426.8 1581.3,427.2 1579.4,427.2 L1579.4,427.2 Z M1579.4,402.1 C1575,402.1 1571,404.7 1569.3,408.9 C1567.6,413 1568.5,417.7 1571.7,420.8 C1574.8,424 1579.5,424.9 1583.6,423.2 C1587.8,421.5 1590.4,417.5 1590.4,413.1 C1590.5,411.6 1590.2,410.2 1589.7,408.8 C1589.1,407.5 1588.3,406.2 1587.3,405.2 C1586.3,404.2 1585,403.4 1583.7,402.8 C1582.3,402.3 1580.9,402 1579.4,402.1 L1579.4,402.1 Z M1585.7,420.9 L1582.6,420.9 L1579.4,416.2 L1576.3,416.2 L1576.3,420.9 L1573.2,420.9 L1573.2,406.8 L1581,406.8 C1581.66667,406.666667 1582.3,406.733333 1582.9,407 C1583.5,407.2 1584.03333,407.533333 1584.5,408 C1584.96667,408.466667 1585.33333,409 1585.6,409.6 C1585.8,410.2 1585.83333,410.833333 1585.7,411.5 C1585.7,413.1 1584.2,414.6 1582.6,416.2 L1585.7,420.9 Z M1581,413.1 C1582.5,413.1 1582.5,413.1 1582.5,411.5 C1582.5,411.3 1582.46667,411.1 1582.4,410.9 C1582.33333,410.7 1582.23333,410.533333 1582.1,410.4 C1581.96667,410.2 1581.8,410.066667 1581.6,410 C1581.4,409.933333 1581.2,409.9 1581,409.9 L1576.3,409.9 L1576.3,414.6 L1581,414.6 L1581,413.1 Z M172.2,399 L206.7,399 L206.7,493.2 L266.4,493.2 L266.4,523.1 L172.2,523.1 L172.2,399 Z M302.5,460.2 C302.5,451.5 304.3,442.9 307.7,434.8 C311.2,426.8 316.2,419.6 322.5,413.6 C328.8,407.5 336.3,402.9 344.5,399.8 C352.6,396.8 361.3,395.4 370,395.8 C378.7,395.4 387.3,396.8 395.4,399.9 C403.5,403 410.8,407.7 417,413.7 C423.2,419.8 428.1,427 431.3,435 C434.6,443 436.2,451.6 436,460.2 C436,468.9 434.2,477.6 430.8,485.6 C427.4,493.6 422.3,500.9 416,506.9 C409.7,512.9 402.2,517.6 394.1,520.6 C385.9,523.7 377.2,525 368.5,524.6 C359.9,524.9 351.3,523.4 343.3,520.3 C335.3,517.1 328,512.4 321.8,506.4 C315.7,500.4 310.8,493.2 307.5,485.3 C304.1,477.3 302.5,468.8 302.5,460.2 L302.5,460.2 Z M401.5,460.2 C401.8,455.9 401.2,451.5 399.8,447.4 C398.3,443.2 396.1,439.5 393.1,436.2 C390.2,433 386.6,430.4 382.7,428.6 C378.7,426.8 374.4,425.8 370,425.7 C361.6,426.1 353.6,429.7 347.7,435.9 C341.9,442 338.6,450.2 338.6,458.6 C338.6,467.1 341.9,475.3 347.7,481.4 C353.6,487.6 361.6,491.2 370,491.6 C388.9,494.8 401.5,479.1 401.5,460.2 L401.5,460.2 Z M478.4,468.1 L478.4,399 L513,399 L513,468.1 C513,485.3 522.4,494.8 536.5,494.8 C539.8,495 543.2,494.6 546.2,493.4 C549.3,492.2 552.1,490.3 554.4,487.9 C556.6,485.5 558.3,482.6 559.3,479.4 C560.3,476.3 560.6,472.9 560.1,469.6 L560.1,399 L594.6,399 L594.6,468.1 C594.6,508.9 571.1,526.2 536.5,526.2 C500.4,524.6 478.4,507.3 478.4,468.1 Z M695.2,399 C739.1,399 765.8,424.1 765.8,460.2 C765.8,496.3 739.1,523 695.2,523 L648,523 L648,399 L695.2,399 Z M695.2,491.6 C704.1,492.5 712.9,489.5 719.5,483.6 C726,477.6 729.8,469.1 729.8,460.2 C729.8,451.3 726,442.8 719.5,436.9 C712.9,430.9 704.1,428 695.2,428.8 L681.1,428.8 L681.1,491.6 L695.2,491.6 Z M814.6,399 L913.5,399 L913.5,428.8 L849.1,428.8 L849.1,449.2 L907.2,449.2 L907.2,477.5 L849.1,477.5 L849.1,523 L814.6,523 L814.6,399 Z M962.2,399 L996.8,399 L996.8,493.3 L1056.4,493.3 L1056.4,523.1 L962.2,523.1 L962.2,399 Z M1146,397.4 L1180.5,397.4 L1233.9,523.1 L1196.2,523.1 L1186.8,501.1 L1138.1,501.1 L1128.7,523.1 L1092.6,523.1 L1146,397.4 Z M1177.4,474.4 L1163.2,439.8 L1149.1,474.4 L1177.4,474.4 Z M1277.9,399 L1336,399 C1339.73333,398.666667 1343.43333,398.733333 1347.1,399.2 C1350.83333,399.666667 1354.43333,400.5 1357.9,401.7 C1361.43333,402.966667 1364.8,404.533333 1368,406.4 C1371.2,408.333333 1374.16667,410.566667 1376.9,413.1 C1381.4,418 1384.6,423.8 1386.4,430.2 C1388.1,436.6 1388.3,443.3 1387,449.8 C1385.6,456.2 1382.6,462.3 1378.4,467.4 C1374.2,472.5 1368.8,476.5 1362.7,479.1 L1392.6,523 L1353.3,523 L1328.2,485.3 L1312.5,485.3 L1312.5,523 L1277.9,523 L1277.9,399 Z M1334.5,458.7 C1345.5,458.7 1353.3,452.4 1353.3,444.6 C1353.3,435.2 1345.5,430.5 1334.5,430.5 L1312.5,430.5 L1312.5,460.3 L1334.5,460.3 L1334.5,458.7 Z M1436.6,399 L1537.1,399 L1537.1,427.3 L1471.1,427.3 L1471.1,446.1 L1530.8,446.1 L1530.8,474.4 L1471.1,474.4 L1471.1,493.2 L1538.6,493.2 L1538.6,523.1 L1436.6,523.1 L1436.6,399 Z M133,475.9 C131,483.1 127.9,490 123.8,496.2 C119.6,502.4 114.5,507.8 108.6,512.3 C102.6,516.9 96,520.4 88.9,522.7 C81.9,525.1 74.5,526.3 67,526.2 C58.4,526.5 49.8,525 41.8,521.9 C33.8,518.7 26.5,514 20.3,508 C14.2,502 9.3,494.8 6,486.9 C2.7,478.9 1,470.4 1,461.8 C1.2,453.1 3,444.6 6.5,436.6 C10,428.6 15,421.4 21.3,415.5 C27.6,409.5 35,404.8 43.1,401.7 C51.2,398.6 59.9,397.1 68.6,397.4 C76.2,397.1 83.8,398.2 91,400.6 C98.3,402.9 105.1,406.5 111,411.3 C117,416 122.2,421.7 126.2,428.2 C130.2,434.6 133,441.8 134.5,449.2 L98.4,449.2 C97.2,446.3 95.6,443.5 93.5,441 C91.5,438.6 89.2,436.4 86.5,434.6 C83.9,432.8 81,431.4 78,430.4 C74.9,429.4 71.8,428.9 68.6,428.8 C60.1,429.2 52.1,432.9 46.3,439 C40.4,445.2 37.2,453.3 37.2,461.8 C37.2,470.3 40.4,478.4 46.3,484.6 C52.1,490.7 60.1,494.4 68.6,494.8 C71.6,494.8 74.6,494.3 77.4,493.4 C80.3,492.5 83,491.2 85.5,489.6 C88,487.9 90.3,485.9 92.2,483.6 C94.1,481.3 95.7,478.7 96.8,475.9 L133,475.9 Z" id="Layer"></path>
            </g>
        </g>
    </g>
</svg>

<svg version="1.2" xmlns="http://www.w3.org/2000/svg" viewBox="0 0 1594 527" width="1594" height="527">
	<title>Cloudflare-logo-vector-svg</title>
	<style>
		.s0 { fill: #ffffff } 
		.s1 { fill: #f48120 } 
		.s2 { fill: #faad3f } 
		.s3 { fill: #404041 } 
	</style>
	<path id="Layer" class="s0" d="m1488.3 339.2l-507.3-1.5v-194.8l403.7-3.1l15.7 6.3l87.9 20.4z"/>
	<path id="Layer" class="s1" d="m1318.7 337.7c0 3.1-3.1 4.7-6.3 4.7h-504.1q-0.9-0.1-1.8-0.4q-0.8-0.4-1.5-1.1q-0.6-0.6-1-1.5q-0.4-0.8-0.4-1.7q-0.5-2.1-0.9-4.3q-0.3-2.1-0.5-4.3q-0.2-2.2-0.2-4.4q-0.1-2.1 0-4.3c0-14.8 2.9-29.5 8.4-43.2c5.6-13.7 13.8-26.2 24.1-36.8c10.3-10.6 22.6-19.1 36.1-25c13.6-6 28.1-9.2 42.9-9.7q-0.8-3.4-1.3-6.9q-0.5-3.6-0.6-7.1q-0.2-3.6-0.1-7.1q0-3.6 0.4-7.1c1.1-9.2 3.6-18.1 7.6-26.4c4-8.3 9.4-15.9 15.9-22.4c6.5-6.5 14.1-11.9 22.4-15.9c8.3-4 17.2-6.5 26.4-7.6q7.5-0.6 14.9 0.2q7.5 0.7 14.7 2.7q7.3 2 14 5.2q6.8 3.3 12.9 7.6c12.7-36.8 37-68.6 69.3-90.4c32.4-21.7 70.9-32.4 109.8-30.2c39 2.1 76.1 16.9 105.9 42.1c29.7 25.1 50.4 59.3 59 97.4c1.6 1.6 0 3.1 0 4.7l-15.7 40.8c-3.4 8.1-7.9 15.6-13.3 22.5c-5.4 6.9-11.7 13-18.7 18.2c-7 5.3-14.6 9.5-22.8 12.7c-8.1 3.2-16.6 5.3-25.3 6.3l-274.9 3.2c-3.1 0-4.7 1.5-6.3 4.7q-0.5 0.4-0.8 1q-0.3 0.6-0.3 1.3q0 0.7 0.3 1.3q0.3 0.7 0.8 1.1c1.6 0 3.2 1.5 4.8 1.5l273.2 3.2q4.8 0.4 9.4 1.8q4.6 1.3 8.9 3.5q4.2 2.3 7.9 5.3q3.8 3 6.8 6.7c2 2.9 3.6 6.1 4.9 9.5c1.2 3.3 2 6.8 2.4 10.3c0.4 3.5 0.4 7.1 0 10.7c-0.4 3.5-1.3 7-2.6 10.3z"/>
	<path id="Layer" class="s2" d="m1466.8 156.1c18 7.5 34.4 18.5 48.2 32.4c13.9 13.8 24.9 30.2 32.4 48.2c7.6 18.1 11.5 37.4 11.6 57q-0.1 5.2-0.6 10.3q-0.5 5.2-1.3 10.3q-0.8 5.1-1.9 10.2q-1.1 5-2.5 10q0.2 1-0.1 1.9q-0.3 1-1 1.7q-0.7 0.7-1.7 1q-0.9 0.3-1.9 0.1h-207.3c-3.1 0-4.7-3.1-3.1-4.7l3.1-14.1c3.4-8 7.9-15.6 13.3-22.5c5.4-6.9 11.7-13 18.7-18.2c7-5.2 14.6-9.5 22.8-12.7c8.1-3.2 16.6-5.3 25.3-6.3l59.7-3.1c3.1 0 4.7-1.6 6.3-4.7q0.5-0.5 0.8-1.1q0.4-0.6 0.4-1.3q0-0.7-0.4-1.3q-0.3-0.6-0.8-1c-1.6 0-3.2-1.6-4.7-1.6l-58.1-3.2q-4.8-0.4-9.4-1.7q-4.6-1.4-8.9-3.6q-4.2-2.2-7.9-5.2q-3.8-3.1-6.8-6.7c-2-3-3.6-6.2-4.9-9.5c-1.2-3.4-2-6.8-2.4-10.4c-0.4-3.5-0.4-7.1 0-10.6c0.4-3.6 1.3-7 2.6-10.4l11-37.7c1.5-1.5 3.1-3.1 4.7-3.1h7.8c19.6 0.1 38.9 4.1 57 11.6z"/>
	<path id="Layer" fill-rule="evenodd" class="s3" d="m1579.4 427.2c-5.7 0-10.8-3.4-13-8.7c-2.2-5.3-1-11.4 3-15.4c4.1-4.1 10.2-5.3 15.5-3.1c5.2 2.2 8.7 7.3 8.7 13.1c0 1.8-0.4 3.7-1.1 5.4c-0.7 1.7-1.7 3.3-3 4.6c-1.4 1.3-2.9 2.3-4.6 3c-1.8 0.7-3.6 1.1-5.5 1.1zm0-25.1c-4.4 0-8.4 2.6-10.1 6.8c-1.7 4.1-0.8 8.8 2.4 11.9c3.1 3.2 7.8 4.1 11.9 2.4c4.2-1.7 6.8-5.7 6.8-10.1c0.1-1.5-0.2-2.9-0.7-4.3c-0.6-1.3-1.4-2.6-2.4-3.6c-1-1-2.3-1.8-3.6-2.4c-1.4-0.5-2.8-0.8-4.3-0.7zm6.3 18.8h-3.1l-3.2-4.7h-3.1v4.7h-3.1v-14.1h7.8q1-0.2 1.9 0.2q0.9 0.3 1.6 1q0.7 0.7 1.1 1.6q0.3 0.9 0.1 1.9c0 1.6-1.5 3.1-3.1 4.7zm-4.7-7.8c1.5 0 1.5 0 1.5-1.6q0-0.3-0.1-0.6q-0.1-0.3-0.3-0.5q-0.2-0.3-0.5-0.4q-0.3-0.1-0.6-0.1h-4.7v4.7h4.7zm-1408.8-14.1h34.5v94.2h59.7v29.9h-94.2zm130.3 61.2c0-8.7 1.8-17.3 5.2-25.4c3.5-8 8.5-15.2 14.8-21.2c6.3-6.1 13.8-10.7 22-13.8c8.1-3 16.8-4.4 25.5-4c8.7-0.4 17.3 1 25.4 4.1c8.1 3.1 15.4 7.8 21.6 13.8c6.2 6.1 11.1 13.3 14.3 21.3c3.3 8 4.9 16.6 4.7 25.2c0 8.7-1.8 17.4-5.2 25.4c-3.4 8-8.5 15.3-14.8 21.3c-6.3 6-13.8 10.7-21.9 13.7c-8.2 3.1-16.9 4.4-25.6 4c-8.6 0.3-17.2-1.2-25.2-4.3c-8-3.2-15.3-7.9-21.5-13.9c-6.1-6-11-13.2-14.3-21.1c-3.4-8-5-16.5-5-25.1zm99 0c0.3-4.3-0.3-8.7-1.7-12.8c-1.5-4.2-3.7-7.9-6.7-11.2c-2.9-3.2-6.5-5.8-10.4-7.6c-4-1.8-8.3-2.8-12.7-2.9c-8.4 0.4-16.4 4-22.3 10.2c-5.8 6.1-9.1 14.3-9.1 22.7c0 8.5 3.3 16.7 9.1 22.8c5.9 6.2 13.9 9.8 22.3 10.2c18.9 3.2 31.5-12.5 31.5-31.4zm76.9 7.9v-69.1h34.6v69.1c0 17.2 9.4 26.7 23.5 26.7c3.3 0.2 6.7-0.2 9.7-1.4c3.1-1.2 5.9-3.1 8.2-5.5c2.2-2.4 3.9-5.3 4.9-8.5c1-3.1 1.3-6.5 0.8-9.8v-70.6h34.5v69.1c0 40.8-23.5 58.1-58.1 58.1c-36.1-1.6-58.1-18.9-58.1-58.1zm216.8-69.1c43.9 0 70.6 25.1 70.6 61.2c0 36.1-26.7 62.8-70.6 62.8h-47.2v-124zm0 92.6c8.9 0.9 17.7-2.1 24.3-8c6.5-6 10.3-14.5 10.3-23.4c0-8.9-3.8-17.4-10.3-23.3c-6.6-6-15.4-8.9-24.3-8.1h-14.1v62.8zm119.4-92.6h98.9v29.8h-64.4v20.4h58.1v28.3h-58.1v45.5h-34.5zm147.6 0h34.6v94.3h59.6v29.8h-94.2zm183.8-1.6h34.5l53.4 125.7h-37.7l-9.4-22h-48.7l-9.4 22h-36.1zm31.4 77l-14.2-34.6l-14.1 34.6zm100.5-75.4h58.1q5.6-0.5 11.1 0.2q5.6 0.7 10.8 2.5q5.3 1.9 10.1 4.7q4.8 2.9 8.9 6.7c4.5 4.9 7.7 10.7 9.5 17.1c1.7 6.4 1.9 13.1 0.6 19.6c-1.4 6.4-4.4 12.5-8.6 17.6c-4.2 5.1-9.6 9.1-15.7 11.7l29.9 43.9h-39.3l-25.1-37.7h-15.7v37.7h-34.6zm56.6 59.7c11 0 18.8-6.3 18.8-14.1c0-9.4-7.8-14.1-18.8-14.1h-22v29.8h22zm102.1-59.7h100.5v28.3h-66v18.8h59.7v28.3h-59.7v18.8h67.5v29.9h-102zm-1303.6 76.9c-2 7.2-5.1 14.1-9.2 20.3c-4.2 6.2-9.3 11.6-15.2 16.1c-6 4.6-12.6 8.1-19.7 10.4c-7 2.4-14.4 3.6-21.9 3.5c-8.6 0.3-17.2-1.2-25.2-4.3c-8-3.2-15.3-7.9-21.5-13.9c-6.1-6-11-13.2-14.3-21.1c-3.3-8-5-16.5-5-25.1c0.2-8.7 2-17.2 5.5-25.2c3.5-8 8.5-15.2 14.8-21.1c6.3-6 13.7-10.7 21.8-13.8c8.1-3.1 16.8-4.6 25.5-4.3c7.6-0.3 15.2 0.8 22.4 3.2c7.3 2.3 14.1 5.9 20 10.7c6 4.7 11.2 10.4 15.2 16.9c4 6.4 6.8 13.6 8.3 21h-36.1c-1.2-2.9-2.8-5.7-4.9-8.2c-2-2.4-4.3-4.6-7-6.4c-2.6-1.8-5.5-3.2-8.5-4.2c-3.1-1-6.2-1.5-9.4-1.6c-8.5 0.4-16.5 4.1-22.3 10.2c-5.9 6.2-9.1 14.3-9.1 22.8c0 8.5 3.2 16.6 9.1 22.8c5.8 6.1 13.8 9.8 22.3 10.2c3 0 6-0.5 8.8-1.4c2.9-0.9 5.6-2.2 8.1-3.8c2.5-1.7 4.8-3.7 6.7-6c1.9-2.3 3.5-4.9 4.6-7.7z"/>
</svg>
